X: 4
P: Reinlender i G
O: etter Annar Gjelten
Z: John Chambers <jc@trillian.mit.edu>
R: shottish
M: 4/4
L: 1/8
K: G
D |: "G"G>F GA B2 BA | AG Bd g4 | "C"eg ge ed dB |1,3 c2 "Am"cB "D7"BA AD :|2,4 c2 "D7"AF "G"G4 :|
g |: "C"e2 ce g2 fe | "G"ed dc B4 | "D7"D2 FA D2 FA |1,3 G>"G"F GB d4 :|2,4 A>"D7"G GF "G"G4 :|
